src/components/custom-icon/assets/lysted.svg

<?xml version="1.0" encoding="UTF-8" standalone="no"?>
<svg width="400px" height="400px" viewBox="0 0 400 400" version="1.1" xmlns="http://www.w3.org/2000/svg" xmlns:xlink="http://www.w3.org/1999/xlink">
    <!-- Generator: Sketch 3.8.3 (29802) - http://www.bohemiancoding.com/sketch -->
    <title>lysted</title>
    <desc>Created with Sketch.</desc>
    <defs></defs>
    <g id="Page-1" stroke="none" stroke-width="1" fill="none" fill-rule="evenodd">
        <g id="lysted">
            <g id="Group" transform="translate(40.000000, 40.000000)">
                <ellipse id="Mask" stroke="#FFFFFF" stroke-width="3" fill="#029dd8" cx="160.190909" cy="159.637188" rx="159.347827" ry="159.637188"></ellipse>
                <path d="M94.7628901,118.672993 C89.664095,118.672993 84.8712274,120.65135 81.3020708,124.212394 L79.3645287,126.190751 C75.7953721,129.751795 73.8578299,134.499853 73.8578299,139.643582 C73.8578299,144.688394 75.7953721,149.53537 79.3645287,153.096414 L142.895517,216.403853 C146.464673,219.964896 151.257541,221.943254 156.356336,221.943254 C161.45513,221.943254 166.247998,219.964896 169.817155,216.403853 L233.348143,153.096414 C236.917299,149.53537 238.854842,144.787312 238.854842,139.643582 C238.854842,134.598771 236.917299,129.751795 233.348143,126.190751 L231.410601,124.212394 C227.841444,120.65135 223.048577,118.672993 217.949781,118.672993 C212.850986,118.672993 208.058118,120.65135 204.488962,124.212394 L156.356336,172.088645 L108.223709,124.212394 C104.654553,120.552433 99.8616852,118.672993 94.7628901,118.672993 L94.7628901,118.672993 L94.7628901,118.672993 Z" id="logo" fill="#FFFFFF"></path>
            </g>
        </g>
    </g>
</svg>

<?xml version="1.0" encoding="UTF-8" standalone="no"?><svg width="400" height="400" viewBox="0 0 400 400" xmlns="http://www.w3.org/2000/svg"><title>lysted</title><g transform="translate(40 40)" fill="none" fill-rule="evenodd"><ellipse stroke="#FFF" stroke-width="3" fill="#029dd8" cx="160.191" cy="159.637" rx="159.348" ry="159.637"/><path d="M94.763 118.673c-5.099 0-9.892 1.978-13.46 5.54l-1.938 1.978c-3.57 3.56-5.507 8.309-5.507 13.453 0 5.044 1.937 9.891 5.507 13.452l63.53 63.308c3.57 3.56 8.363 5.54 13.461 5.54 5.1 0 9.892-1.98 13.461-5.54l63.531-63.308c3.57-3.56 5.507-8.309 5.507-13.452 0-5.045-1.938-9.892-5.507-13.453l-1.937-1.979c-3.57-3.56-8.362-5.539-13.461-5.539s-9.892 1.978-13.461 5.54l-48.133 47.876-48.132-47.877c-3.57-3.66-8.362-5.539-13.461-5.539z" fill="#FFF"/></g></svg>
